contributed-vectors/hiking_map.svg

<svg xmlns="http://www.w3.org/2000/svg" xml:space="preserve" style="fill-rule:evenodd;clip-rule:evenodd;stroke-linejoin:round;stroke-miterlimit:2" viewBox="0 0 192 192"><path d="M164.5 21.5c0-5.519-4.481-10-10-10h-133c-5.519 0-10 4.481-10 10v133c0 5.519 4.481 10 10 10h133c5.519 0 10-4.481 10-10v-133Z" style="fill:#ccc" transform="translate(8 8)"/><path d="M42.079 207.55s9.073-124.398 25.8-157.611c0 0 55.515 21.334 86.788 22.546 0 0-21.845 42.424-95.499 63.212 0 0-7.599 61.398-7.599 71.853" style="fill:#fff" transform="translate(22.857 18.18) scale(.74353)"/><path d="M59.168 127.367s2.546-37.295 12.103-66.155c0 0 48.407 15.327 69.26 17.562 0 0-34.088 36.96-81.363 48.593" style="fill:#f8c18c" transform="translate(22.857 18.18) scale(.74353)"/></svg>

<?xml version="1.0" encoding="UTF-8" standalone="no"?>
<!DOCTYPE svg PUBLIC "-//W3C//DTD SVG 1.1//EN" "http://www.w3.org/Graphics/SVG/1.1/DTD/svg11.dtd">
<svg width="100%" height="100%" viewBox="0 0 192 192" version="1.1" xmlns="http://www.w3.org/2000/svg" xmlns:xlink="http://www.w3.org/1999/xlink" xml:space="preserve" xmlns:serif="http://www.serif.com/" style="fill-rule:evenodd;clip-rule:evenodd;stroke-linejoin:round;stroke-miterlimit:2;">
    <g id="Layer1">
        <g transform="matrix(1,0,0,1,8,8)">
            <path d="M164.5,21.5C164.5,15.981 160.019,11.5 154.5,11.5L21.5,11.5C15.981,11.5 11.5,15.981 11.5,21.5L11.5,154.5C11.5,160.019 15.981,164.5 21.5,164.5L154.5,164.5C160.019,164.5 164.5,160.019 164.5,154.5L164.5,21.5Z" style="fill:rgb(204,204,204);"/>
        </g>
        <g transform="matrix(0.743532,0,0,0.743532,22.8566,18.1801)">
            <path d="M42.079,207.55C42.079,207.55 51.152,83.152 67.879,49.939C67.879,49.939 123.394,71.273 154.667,72.485C154.667,72.485 132.822,114.909 59.168,135.697C59.168,135.697 51.569,197.095 51.569,207.55" style="fill:white;"/>
            <path d="M59.168,127.367C59.168,127.367 61.714,90.072 71.271,61.212C71.271,61.212 119.678,76.539 140.531,78.774C140.531,78.774 106.443,115.734 59.168,127.367" style="fill:rgb(248,193,140);"/>
        </g>
    </g>
</svg>
